X:20
T:Jolly Tinker, The
R:reel
D:Martin O'Connor: The Connaughtman's Rambles
Z:id:hn-reel-237
M:C|
K:Ador
~A3B ~G3B|A2af gedB|~A3B ~G3B|1 dBGB dedB:|2 dBGB d2 (3Bcd||
edef ggeg|ggaf gfed|edeg aaeg|agbg aged|
edef ggeg|ggaf gfed|edeg aaeg|agbg aged||
eaag ed (3Bcd|eaag egdg|eaag efge|dBGB d2 (3Bcd|
eaag eaag|eaag egdg|eaag efge|dBGB d2 (3Bcd||
edgd ed (3Bcd|edgd eeBd|edgd efge|dBGB d2 (3Bcd|
edgd ed (3Bcd|edgd eeBd|eeef ggge|dBGB dGBd||
eA~A2 ed (3Bcd|edef g2fg|1 eA~A2 efge|dBGB dgfg:|2 eaag efge|dBGB dedB||
